X:460
T: Ri luo xishan
N: C1495
O: China,Yunnan, Shigu
S: II, 85]
R: Shange. Nann qing]
M: 4/4
L: 1/16
K: C
A16 | d16 | c4d4A8 |
A4e4d4c4 | F4G4AG3E2D2 | G4G2c2A4A4 | G2A2G2E2D8 |
F4F2G2A4d4 | d2c2F2G2A8 | G4G2c2A4A4 | G2A2G2E2D8

@@@ Tune index: 6461
